X:1
T:Angelois
T:efter Sasser Swensson
R:Engelska
S:Efter Sasser Swensson, Borrby
O:Borrby, Skåne
B:FMK M87:091
Z:rytmiskt justerad i B-deln av Sven Midgren och transponerad till A-dur för Skånska Spelmanslaget på Österlen
M:2/4
L:1/8
K:D
A/G/ | FA AA | GB BA/G/ | F/A/F/D/ E/G/E/C/ | Dd dA/G/ | FA AA | GB BA/G/ | F/A/F/D/ E/G/E/C/ | DD D :|:
A | dD/D/ D/E/F/G/ | AA/G/ A2 | G/F/E/D/ C/D/E/C/ | D/E/F/G/ A2 | dD/D/ D/E/F/G/ | AA/G/ A2 | G/F/E/D/ C/D/E/C/ | DF D :|

